X:3728
T:Lo marmito d'Adrien Bras
O:england
S:Esbelin / Pauvert
M:3/8
L:1/16
K:C
c2|ded2c2|B2G4|def2ef|g2fed2|\
ded2c2|B2G4|def2ef|g4:|
|:c2|def2ef|g4f2|dec3d|B2G4|\
def2ef|g4f2|dec2B2|c4:|


